X:1
T:Title
%%score { ( 1 3 ) | ( 2 4 ) }
L:1/8
Q:1/4=69
M:3/4
K:C
V:1 treble nm="Grand Piano"
V:3 treble 
V:2 bass 
V:4 bass 
V:1
 [EG]>[EG] [FA][EG] [_E^F][=EG] | [G,CE]4 [CEG][CGc] | G2- [GB]2 Bd | [Fd]2 [Ec]2 z2 | %4
w: T.~C.~O'Kane * * * * *||||
 [EG]>[EG] [FA][EG] [_E^F][=EG] | [G,CE]4 [CEG][CGc] | G2- [GB]2 Bd | [Fd]2 c2 z2 | %8
w: ||||
 [CEc]>[CEc] [CEc][CEc] B_B | B4 Bc | [GB]2 A2 [C^FA][DFB] | D2- [DG-]2 G2 | %12
w: ||||
 [G,CE]>[G,DF] [CEG][CFA] [CEG][G,CE] | E2- [Ec]2 [FB][Gc] | d2- [Gd-][Fd] cB | [Ec]4 z2 |] %16
w: ||||
V:2
 [C,C]>[C,C] [C,C][C,C] [C,C][C,C] | C,4 C,E, | z2[K:treble] D2 [G,DG][G,B,F] | [C,C]4 z2 | %4
 [C,C]>[C,C] [C,C][C,C] [C,C][C,C] | C,4 C,E, | z2[K:treble] D2 [G,DG][G,B,F] | z2 E2 z2 | %8
 A,,>A,, A,,A,, [E,G,E][E,G,E] | [E,^G,E]4 [E,G,E][E,A,E] | [D,D]4 z2 | z2 B,2 z F | %12
 C,>C, C,C, C,C, | z2 G,2 [D,G,][E,G,] | [F,C]2 [G,B,]2[K:treble] [G,E][G,F] | [C,G,]4 z2 |] %16
V:3
 x6 | x6 | [Ec]2 z2 z2 | x6 | x6 | x6 | [Ec]2 z2 z2 | x6 | x6 | x6 | x6 | [CA]2 z2 z2 | x6 | %13
 [CG]2 z2 z2 | A2 z2 z2 | x6 |] %16
V:4
 x6 | x6 | F,4[K:treble] z2 | x6 | x6 | x6 | F,4[K:treble] z2 | [C,C]4 z2 | x6 | x6 | z2 ^F2 D,D, | %11
 G,,4 z2 | x6 | C,4 z2 | x4[K:treble] x2 | x6 |] %16

